src/images/sidebar/explore/icons/live_outline.svg

<svg xmlns="http://www.w3.org/2000/svg" width="24" height="24"><path style="stroke:none;fill-rule:nonzero;fill:#fff;fill-opacity:1" d="M14 12c0 1.102-.898 2-2 2-1.102 0-2-.898-2-2 0-1.102.898-2 2-2 1.102 0 2 .898 2 2zM8.48 8.45l-.71-.7A5.973 5.973 0 0 0 6 12c0 1.66.68 3.172 1.77 4.25l.71-.71A4.956 4.956 0 0 1 7 12c0-1.39.57-2.64 1.48-3.55zm7.75-.7-.71.71A4.956 4.956 0 0 1 17 12c0 1.39-.57 2.64-1.48 3.55l.71.712A6.021 6.021 0 0 0 18 12c0-1.66-.68-3.172-1.77-4.25zM5.648 5.629l-.699-.707A9.956 9.956 0 0 0 2 12a9.956 9.956 0 0 0 2.95 7.078l.71-.707A8.962 8.962 0 0 1 3 12a9 9 0 0 1 2.648-6.371zm13.403-.707-.711.707A8.962 8.962 0 0 1 21 12a9 9 0 0 1-2.648 6.371l.707.707a9.982 9.982 0 0 0-.008-14.156zm0 0"/></svg>

<svg xmlns="http://www.w3.org/2000/svg" viewBox="0 0 24 24" preserveAspectRatio="xMidYMid meet" focusable="false">
    <g fill="white">
        <path d="M14,12c0,1.1-0.9,2-2,2s-2-0.9-2-2s0.9-2,2-2S14,10.9,14,12z M8.48,8.45L7.77,7.75C6.68,8.83,6,10.34,6,12 s0.68,3.17,1.77,4.25l0.71-0.71C7.57,14.64,7,13.39,7,12S7.57,9.36,8.48,8.45z M16.23,7.75l-0.71,0.71C16.43,9.36,17,10.61,17,12 s-0.57,2.64-1.48,3.55l0.71,0.71C17.32,15.17,18,13.66,18,12S17.32,8.83,16.23,7.75z M5.65,5.63L4.95,4.92C3.13,6.73,2,9.24,2,12 s1.13,5.27,2.95,7.08l0.71-0.71C4.02,16.74,3,14.49,3,12S4.02,7.26,5.65,5.63z M19.05,4.92l-0.71,0.71C19.98,7.26,21,9.51,21,12 s-1.02,4.74-2.65,6.37l0.71,0.71C20.87,17.27,22,14.76,22,12S20.87,6.73,19.05,4.92z"></path>
    </g>
</svg>
